X:44
T:Lady Ramsey. LIT.044
M:2/2
Q:1/4=130
L:1/8
B:Wm. Litten MS, 1802
Z:Village Music Project 2017 Anne Wride
K:G
B | G3e d>B Bd | d>B e>c dB Bg | G3e d>B B>d | e>G dB A/A/A A :|
|: g/a/ | b>g g>b a>f f>a | g>e e>g dB B g/a/ | b>g g>b a>f g>d | e>g d>B A/A/A A g/a/ |
b>g g>b a>f f>a | g>b e>g d>B B>d | g>b f>a e>g d>e | G>g d>B A/A/A A:|

